tools/download-figma-icons/icons/outlined-medium/smoke-detector.svg

<svg width="24" height="24" viewBox="0 0 24 24" fill="none" xmlns="http://www.w3.org/2000/svg">
<path fill-rule="evenodd" clip-rule="evenodd" d="M22.5 7.5H20.2897H14.1112C13.8008 6.6285 12.9765 6 12 6C11.0235 6 10.1993 6.6285 9.88875 7.5H3.71025H1.5V3.75H22.5V7.5ZM18.003 12H16.1693L16.7618 9H19.1873L18.003 12ZM11.25 8.25C11.25 7.83675 11.586 7.5 12 7.5C12.414 7.5 12.75 7.83675 12.75 8.25C12.75 8.66325 12.414 9 12 9C11.586 9 11.25 8.66325 11.25 8.25ZM14.1112 9H15.2325L14.64 12H12.75V10.362C13.386 10.1355 13.8855 9.63525 14.1112 9ZM9.88876 9C10.1145 9.63525 10.614 10.1355 11.25 10.3612V12H9.36001L8.76751 9H9.88876ZM4.81275 9H7.23825L7.83075 12H5.997L4.81275 9ZM23.25 2.25H0.75C0.33525 2.25 0 2.586 0 3V8.25C0 8.664 0.33525 9 0.75 9H3.201L4.7895 13.0252C4.902 13.3117 5.17875 13.5 5.48625 13.5H18.5138C18.8212 13.5 19.098 13.3117 19.2105 13.0252L20.799 9H23.25C23.6647 9 24 8.664 24 8.25V3C24 2.586 23.6647 2.25 23.25 2.25ZM12 18.75C13.3605 18.75 14.631 18.1207 15.5783 16.9785C15.8415 16.6597 15.7973 16.1865 15.4785 15.9225C15.1598 15.657 14.6865 15.7035 14.4218 16.0215C13.7655 16.8135 12.906 17.25 12 17.25C11.094 17.25 10.2345 16.8135 9.57827 16.0215C9.31277 15.7035 8.84026 15.6562 8.52151 15.9225C8.20276 16.1865 8.15851 16.6597 8.42176 16.9785C9.36901 18.1207 10.6395 18.75 12 18.75ZM12.0004 20.2502C14.0389 20.2502 15.9649 19.2812 17.4221 17.5217C17.6876 17.2037 18.1594 17.158 18.4781 17.4227C18.7976 17.6867 18.8419 18.1592 18.5779 18.478C16.8304 20.5877 14.4941 21.7502 12.0004 21.7502C9.50586 21.7502 7.16961 20.5877 5.42211 18.478C5.15811 18.1592 5.20236 17.6867 5.52186 17.4227C5.84061 17.1572 6.31236 17.203 6.57786 17.5217C8.03511 19.2812 9.96111 20.2502 12.0004 20.2502Z" fill="black"/>
</svg>

<svg xmlns="http://www.w3.org/2000/svg" width="24" height="24" fill="none" viewBox="0 0 24 24"><path fill="currentColor" fill-rule="evenodd" d="M22.5 7.5h-8.389A2.245 2.245 0 0 0 12 6c-.976 0-1.8.628-2.111 1.5H1.5V3.75h21zM18.003 12h-1.834l.593-3h2.425zM11.25 8.25a.75.75 0 1 1 1.502.002.75.75 0 0 1-1.502-.002m2.861.75h1.121l-.592 3h-1.89v-1.638A2.24 2.24 0 0 0 14.111 9M9.89 9a2.24 2.24 0 0 0 1.361 1.361V12H9.36l-.592-3zM4.813 9h2.425l.593 3H5.997zM23.25 2.25H.75A.75.75 0 0 0 0 3v5.25c0 .414.335.75.75.75h2.451l1.589 4.025a.75.75 0 0 0 .696.475h13.028a.75.75 0 0 0 .697-.475L20.799 9h2.451a.75.75 0 0 0 .75-.75V3a.75.75 0 0 0-.75-.75M12 18.75c1.36 0 2.631-.63 3.578-1.771a.751.751 0 0 0-1.156-.957c-.657.792-1.516 1.228-2.422 1.228s-1.765-.436-2.422-1.229a.75.75 0 0 0-1.156.957c.947 1.143 2.217 1.772 3.578 1.772m0 1.5c2.039 0 3.965-.969 5.422-2.728a.75.75 0 0 1 1.156.956C16.83 20.588 14.494 21.75 12 21.75s-4.83-1.162-6.578-3.272a.749.749 0 1 1 1.156-.956C8.035 19.282 9.96 20.25 12 20.25" clip-rule="evenodd"/></svg>
